X: 67
T:Swedish Masquerade
% Nottingham Music Database
S:Kevin Briggs, via EF
P:AABBCC
M:4/4
L:1/4
K:G
D|"G"G2 G3/2G/2|"G"G2 "D7"Ac|"G"B2 B3/2B/2|"G"B2 "C"ce|"G"ed Bd|"D7"dc AF|\
"G"G2 "C"G3/2G/2|1"G"GD "D7"B,D:|2"G"G3:|
M:3/4
L:1/4
|:\
P:B
B/2c/2|"G"dBg/2e/2|"G"dBe/2d/2|"D7"cAB/2A/2|"G"G/2F/2G/2A/2B/2c/2|"G"dBg/2e/2|\
"G"dBe/2d/2|"D7"cAf|"G"g2:|
M:4/4
L:1/4
|F\
P:C
B/2c/2 |"G"dB ge|"G"dB GB|"D7"dc Ac|"G"ed BB/2c/2|"G"dB ge|"G"dB GB|"D7"dc AF|\
"G"G2 G:|
